X:1
T:Title
%%score 1 { 2 | 3 }
L:1/8
Q:1/4=92
M:4/4
K:G
V:1 treble nm="Grand Piano, Soprano"
V:2 bass nm="Choir Pad, Istanbul, 99.99.99"
V:3 bass 
V:1
 [GB]2 [FA][DB] [B,G]2 [B,D]2 | [DG]2 [DA][DB] [DA]4 | [GB]2 [=FA][FB] [Ec]2 [CE]2 | %3
w: By~William~Howard~Doane,~1872 * * * *|||
 [B,D]2 [DG][DA] [DG]4 | [DA]2 [DA][DB] [Dc]2 [FA]2 | [GB]2 [Gd][GB] [FA]4 | %6
w: |||
 [GB]2 [Gc][Gd] [Ge]2 [Gd]2 | [GB]2 [GB][GA] [FA]4 | [GB]2 [FA][DB] [B,G]2 [B,D]2 | %9
w: |||
 [DG]2 [DA][DB] [DA]4 | [GB]2 [=FA][FB] [Ec]2 [CE]2 | [B,D]2 [DG][DA] [DG]4- | [DG]4 z4 |] %13
w: ||||
V:2
 D2 CF, G,2 G,2 | G,2 F,G, F,4 | D2 DD C2 G,2 | G,2 B,C B,4 | F,2 F,G, A,2 B,[K:treble]C | %5
 D2 B,D D4 | D2 CB, C2 B,2 | D2 ^CC D4 | D2 C[K:bass]F, G,2 G,2 | G,2 F,G, F,4 | D2 DD C2 G,2 | %11
 G,2 B,C B,4- | B,4 z4 |] %13
V:3
 G,,2 D,D, G,,2 G,,2 | B,,2 A,,G,, D,4 | G,2 G,G, C,2 C,2 | D,2 D,D, G,4 | D,2 D,D, D,2 D,2 | %5
 G,2 G,G, D,4 | G,2 E,D, C,2 G,2 | G,2 E,E, D,4 | G,,2 D,D, G,,2 G,,2 | B,,2 A,,G,, D,4 | %10
 G,2 G,G, C,2 C,2 | D,2 D,D, G,4- | G,4 z4 |] %13

